src/assets/filled/BucketCircle.svg

<?xml version="1.0" encoding="UTF-8"?>
<svg width="24" height="24" viewBox="0 0 24 24" xmlns="http://www.w3.org/2000/svg">
 <path d="m12 2c-5.52 0-10 4.48-10 10s4.48 10 10 10 10-4.48 10-10-4.48-10-10-10zm-0.37 14.25c-0.85 0.85-1.71 0.85-2.57 0l-2.56-2.57c-0.44-0.44-0.65-0.88-0.64-1.33 0.01-0.42 0.23-0.83 0.64-1.24l3.6-3.6-0.56-0.55c-0.19-0.19-0.19-0.49 0-0.68s0.49-0.19 0.68 0l5.25 5.25c0.1 0.1 0.17 0.25 0.17 0.39 0.01 0.17-0.04 0.34-0.17 0.47l-3.84 3.86zm5.01 1.61c-0.83 0-1.5-0.67-1.5-1.5 0-0.84 0.99-1.95 1.19-2.17 0.16-0.18 0.47-0.18 0.64 0 0.2 0.21 1.19 1.33 1.19 2.17-0.02 0.83-0.69 1.5-1.52 1.5z"/>
</svg>

<svg width="24" height="24" viewBox="0 0 24 24"  xmlns="http://www.w3.org/2000/svg">
<path d="M12 2C6.48 2 2 6.48 2 12C2 17.52 6.48 22 12 22C17.52 22 22 17.52 22 12C22 6.48 17.52 2 12 2ZM11.63 16.25C10.78 17.1 9.92 17.1 9.06 16.25L6.5 13.68C6.06 13.24 5.85 12.8 5.86 12.35C5.87 11.93 6.09 11.52 6.5 11.11L10.1 7.51L9.54 6.96C9.35 6.77 9.35 6.47 9.54 6.28C9.73 6.09 10.03 6.09 10.22 6.28L10.77 6.83L15.47 11.53C15.57 11.63 15.64 11.78 15.64 11.92C15.65 12.09 15.6 12.26 15.47 12.39L11.63 16.25ZM16.64 17.86C15.81 17.86 15.14 17.19 15.14 16.36C15.14 15.52 16.13 14.41 16.33 14.19C16.49 14.01 16.8 14.01 16.97 14.19C17.17 14.4 18.16 15.52 18.16 16.36C18.14 17.19 17.47 17.86 16.64 17.86Z" />
</svg>
